src/main/resources/extratci/icons/custom/endpointsAction.svg

<svg xmlns="http://www.w3.org/2000/svg" width="16" height="16" viewBox="0 0 16 16">
<path fill="#F26522" fill-opacity=".6" fill-rule="evenodd" d="M12.8120225,10.0192823 L14.2044269,6.891891 L15.1179723,7.29862764 L13.7629708,10.3420108 C14.5030637,10.7760884 15,11.5800114 15,12.5 C15,13.8807119 13.8807119,15 12.5,15 C11.1192881,15 10,13.8807119 10,12.5 C10,11.6145671 10.4603065,10.8366445 11.1546758,10.392476 L9.4507623,5.9995248 C9.31734709,5.99694756 9.1864917,5.98391909 9.05898089,5.96122414 L5.30320779,10.7683945 C5.73474637,11.2176639 6,11.8278553 6,12.5 C6,13.8807119 4.88071187,15 3.5,15 C2.11928813,15 1,13.8807119 1,12.5 C1,11.5596542 1.51917169,10.7405673 2.28651319,10.3137415 L1.2,6.25881905 L2.16592583,6 L3.24126658,10.0132263 C3.32631953,10.0044812 3.41263644,10 3.5,10 C3.84746716,10 4.17837789,10.0708865 4.47905962,10.1989868 L8.0963546,5.56906035 C7.4346495,5.11928732 7,4.36040258 7,3.5 C7,2.11928813 8.11928813,1 9.5,1 C10.8807119,1 12,2.11928813 12,3.5 C12,4.54404898 11.3600036,5.43861879 10.4509239,5.81279642 L12.0881301,10.0337661 C12.2221213,10.0115553 12.3597112,10 12.5,10 C12.6056668,10 12.7098025,10.0065556 12.8120225,10.0192823 Z"/>
</svg>

<svg xmlns="http://www.w3.org/2000/svg" width="16" height="16" viewBox="0 0 16 16"><path fill="#F26522" fill-opacity=".6" fill-rule="evenodd" d="m12.812 10.02 1.392-3.128.914.407-1.355 3.043A2.499 2.499 0 0 1 12.5 15a2.5 2.5 0 0 1-1.345-4.608L9.45 6a2.512 2.512 0 0 1-.392-.039l-3.756 4.807a2.5 2.5 0 1 1-3.017-.455L1.2 6.26 2.166 6l1.075 4.013a2.53 2.53 0 0 1 1.238.186l3.617-4.63a2.5 2.5 0 1 1 2.355.244l1.637 4.22a2.517 2.517 0 0 1 .724-.014Z"/></svg>
